assets/spark/icons/AlarmOnOutline.svg

<svg viewBox="0 0 24 24" xmlns="http://www.w3.org/2000/svg">
<path d="M7.12566 2.40793C7.4567 2.85337 7.36111 3.48072 6.91216 3.80917C6.00104 4.47572 5.25621 5.35538 4.7413 6.37714C4.36241 7.129 4.11631 7.94138 4.01249 8.77697C3.94424 9.32625 3.44013 9.71663 2.88652 9.64892C2.33291 9.58121 1.93945 9.08104 2.00769 8.53176C2.13945 7.47132 2.45196 6.43856 2.93459 5.48086C3.59046 4.17938 4.54222 3.0529 5.71337 2.1961C6.16232 1.86766 6.79463 1.9625 7.12566 2.40793Z" />
<path fill-rule="evenodd" clip-rule="evenodd" d="M14.0534 4.16236C15.1044 4.49485 16.0706 5.0749 16.8642 5.86585C18.1664 7.1637 18.8971 8.92301 18.8971 10.7565C18.8971 13.5382 19.3713 15.0736 19.8604 15.9651C20.2522 16.6794 20.4423 17.5538 20.1184 18.3386C19.7582 19.2114 18.9126 19.6336 17.966 19.6336H15.0317L15.0305 19.6383C14.853 20.3147 14.4543 20.9136 13.8969 21.3411C13.3395 21.7686 12.655 22.0005 11.9505 22.0005C11.246 22.0005 10.5614 21.7686 10.004 21.3411C9.44664 20.9136 9.04796 20.3147 8.87047 19.6383L8.86925 19.6336H5.93461C4.98925 19.6336 4.14314 19.2129 3.78334 18.3394C3.46016 17.5547 3.65159 16.6812 4.04267 15.9681C4.53095 15.0778 5.00452 13.5423 5.00452 10.7565C5.00452 8.92301 5.73525 7.1637 7.03742 5.86585C7.83094 5.07496 8.79709 4.49494 9.84797 4.16244C9.88885 3.04516 10.8146 2.15186 11.9507 2.15186C13.0867 2.15186 14.0125 3.04512 14.0534 4.16236ZM11.9508 5.84196C13.2559 5.84196 14.5084 6.35863 15.4326 7.27978C16.357 8.20109 16.8772 9.45162 16.8772 10.7565C16.8772 13.7512 17.3859 15.6467 18.0862 16.9232C18.3102 17.3317 18.2607 17.551 18.2491 17.5792L18.245 17.5819C18.2283 17.5915 18.1504 17.6295 17.966 17.6295H5.93461C5.74984 17.6295 5.67203 17.5915 5.65578 17.5821L5.65293 17.5805C5.64133 17.5508 5.59412 17.3324 5.81697 16.926C6.51673 15.6501 7.02449 13.7542 7.02449 10.7565C7.02449 9.45162 7.54462 8.20109 8.469 7.27978C9.39322 6.35863 10.6458 5.84196 11.9508 5.84196Z" />
<path d="M18.2866 2.1961C17.8377 1.86766 17.2054 1.9625 16.8743 2.40793C16.5433 2.85337 16.6389 3.48072 17.0878 3.80917C17.999 4.47572 18.7438 5.35538 19.2587 6.37714C19.6376 7.129 19.8837 7.94138 19.9875 8.77697C20.0558 9.32625 20.5599 9.71663 21.1135 9.64892C21.6671 9.58121 22.0606 9.08104 21.9923 8.53176C21.8605 7.47132 21.548 6.43856 21.0654 5.48086C20.4095 4.17938 19.4578 3.0529 18.2866 2.1961Z" />
</svg>

<svg viewBox="0 0 24 24" xmlns="http://www.w3.org/2000/svg">
  <path d="m7.13,2.41c.33.45.24,1.07-.21,1.4-.91.67-1.66,1.55-2.17,2.57-.38.75-.62,1.56-.73,2.4-.07.55-.57.94-1.13.87-.55-.07-.95-.57-.88-1.12.13-1.06.44-2.09.93-3.05.66-1.3,1.61-2.43,2.78-3.28.45-.33,1.08-.23,1.41.21Z"/>
  <path d="m14.05,4.16c1.05.33,2.02.91,2.81,1.7,1.3,1.3,2.03,3.06,2.03,4.89,0,2.78.47,4.32.96,5.21.39.71.58,1.59.26,2.37-.36.87-1.21,1.3-2.15,1.3h-2.94c-.18.68-.58,1.28-1.13,1.71s-1.24.66-1.95.66-1.39-.23-1.95-.66c-.56-.43-.96-1.03-1.13-1.7h0s-2.93,0-2.93,0c-.95,0-1.79-.42-2.15-1.29-.32-.78-.13-1.66.26-2.37.49-.89.96-2.43.96-5.21,0-1.83.73-3.59,2.03-4.89.79-.79,1.76-1.37,2.81-1.7.04-1.12.97-2.01,2.1-2.01s2.06.89,2.1,2.01Zm-2.1,1.68c1.31,0,2.56.52,3.48,1.44.92.92,1.44,2.17,1.44,3.48,0,2.99.51,4.89,1.21,6.17.22.41.17.63.16.66h0s-.09.05-.28.05H5.93c-.18,0-.26-.04-.28-.05h0s-.06-.25.16-.66c.7-1.28,1.21-3.17,1.21-6.17,0-1.3.52-2.56,1.44-3.48.92-.92,2.18-1.44,3.48-1.44Z"/>
  <path d="m18.29,2.2c-.45-.33-1.08-.23-1.41.21-.33.45-.24,1.07.21,1.4.91.67,1.66,1.55,2.17,2.57.38.75.62,1.56.73,2.4.07.55.57.94,1.13.87s.95-.57.88-1.12c-.13-1.06-.44-2.09-.93-3.05-.66-1.3-1.61-2.43-2.78-3.28Z"/>
</svg>
